modules/themify-icons/icons/tablet.svg

<?xml version="1.0" encoding="utf-8"?>
<!-- Generated by IcoMoon.io -->
<!DOCTYPE svg PUBLIC "-//W3C//DTD SVG 1.1//EN" "http://www.w3.org/Graphics/SVG/1.1/DTD/svg11.dtd">
<svg version="1.1" xmlns="http://www.w3.org/2000/svg" xmlns:xlink="http://www.w3.org/1999/xlink" width="17" height="17" viewBox="0 0 17 17">
<g>
</g>
	<path d="M9.25 14.5c0 0.415-0.335 0.75-0.75 0.75s-0.75-0.335-0.75-0.75 0.335-0.75 0.75-0.75 0.75 0.335 0.75 0.75zM16 1.5v14c0 0.827-0.625 1.5-1.392 1.5h-12.216c-0.767 0-1.392-0.673-1.392-1.5v-14c0-0.827 0.625-1.5 1.392-1.5h12.217c0.766 0 1.391 0.673 1.391 1.5zM15 1.5c0-0.271-0.179-0.5-0.392-0.5h-12.216c-0.213 0-0.392 0.229-0.392 0.5v14c0 0.271 0.179 0.5 0.392 0.5h12.217c0.212 0 0.391-0.229 0.391-0.5v-14zM3 2h11v11h-11v-11zM4 12h9v-9h-9v9z" fill="#000000" />
</svg>

<svg xmlns="http://www.w3.org/2000/svg" width="17" height="17" viewBox="0 0 17 17"><path d="M9.25 14.5a.749.749 0 1 1-1.5 0 .749.749 0 1 1 1.5 0zM16 1.5v14c0 .827-.625 1.5-1.392 1.5H2.392C1.625 17 1 16.327 1 15.5v-14C1 .673 1.625 0 2.392 0h12.217C15.375 0 16 .673 16 1.5zm-1 0c0-.271-.179-.5-.392-.5H2.392C2.179 1 2 1.229 2 1.5v14c0 .271.179.5.392.5h12.217c.212 0 .391-.229.391-.5v-14zM3 2h11v11H3V2zm1 10h9V3H4v9z"/></svg>
